svg/color/carbo.svg

<?xml version="1.0" encoding="UTF-8" ?>
<!DOCTYPE svg PUBLIC "-//W3C//DTD SVG 1.1//EN" "http://www.w3.org/Graphics/SVG/1.1/DTD/svg11.dtd">
<svg width="212pt" height="250pt" viewBox="0 0 212 250" version="1.1" xmlns="http://www.w3.org/2000/svg">
<g id="#ffffffff">
<path fill="#ffffff" opacity="1.00" d=" M 0.00 0.00 L 212.00 0.00 L 212.00 250.00 L 0.00 250.00 L 0.00 0.00 M 101.33 16.31 C 100.97 20.83 101.50 25.39 100.97 29.89 C 100.91 31.27 99.62 31.95 98.61 32.61 C 79.27 43.59 59.96 54.63 40.60 65.58 C 39.39 66.37 37.95 66.98 37.14 68.23 C 36.34 72.11 36.71 76.13 37.09 80.04 C 38.27 79.58 39.45 79.13 40.57 78.55 C 57.95 68.59 75.35 58.64 92.78 48.77 C 95.36 47.25 97.90 45.56 100.86 44.88 C 101.21 49.87 101.46 54.92 100.91 59.91 C 100.87 61.54 99.22 62.27 98.07 63.08 C 88.11 68.92 77.86 74.30 68.06 80.42 C 63.51 83.04 58.64 85.22 54.42 88.37 C 53.83 98.86 53.28 109.40 53.79 119.91 C 66.23 127.30 78.84 134.39 91.31 141.71 C 94.41 143.62 97.86 145.03 100.69 147.35 C 101.70 152.53 101.21 157.89 100.87 163.12 C 97.18 162.18 94.06 159.95 90.73 158.22 C 76.66 150.60 62.54 143.09 48.44 135.52 C 44.73 133.49 41.13 131.17 37.06 129.90 C 36.65 133.86 36.62 137.86 37.05 141.83 C 58.09 153.65 79.45 164.90 100.69 176.38 C 102.05 194.58 100.04 212.89 101.17 231.12 C 105.46 229.36 109.47 226.80 112.98 223.79 C 113.93 218.11 112.98 212.27 113.44 206.53 C 136.87 194.42 159.87 181.49 183.19 169.18 C 184.43 168.22 186.59 167.72 186.92 166.03 C 182.99 161.99 178.97 157.98 174.52 154.49 C 169.24 150.12 164.60 145.00 159.16 140.83 C 157.73 139.47 155.96 140.90 154.57 141.53 C 140.84 149.01 127.01 156.29 113.36 163.90 C 113.09 157.26 113.45 150.62 113.20 143.98 C 113.32 142.00 111.75 140.70 110.21 139.82 C 95.21 131.03 79.92 122.71 65.03 113.75 C 64.24 107.48 64.52 100.86 65.65 94.63 C 69.61 91.67 74.15 89.61 78.38 87.08 C 88.02 81.93 97.13 75.79 106.98 71.04 C 123.34 79.12 139.16 88.25 155.33 96.71 C 156.49 97.13 158.03 98.30 159.15 97.15 C 165.70 91.38 172.06 85.39 178.63 79.64 C 181.56 76.92 184.75 74.42 187.09 71.14 C 182.46 67.83 177.11 65.77 172.28 62.81 C 156.28 54.31 140.42 45.54 124.38 37.11 C 124.32 41.28 124.34 45.44 124.41 49.61 C 138.16 57.28 152.12 64.59 165.98 72.05 C 166.73 72.61 167.44 73.22 168.12 73.86 C 164.61 77.15 161.25 80.62 157.52 83.65 C 156.42 84.85 154.93 83.66 153.80 83.20 C 140.33 75.99 127.00 68.52 113.42 61.50 C 112.77 44.32 113.76 27.08 112.80 9.91 C 108.53 11.13 105.20 14.26 101.33 16.31 M 37.00 157.62 C 36.82 161.62 36.18 165.77 37.23 169.69 C 40.71 172.40 44.81 174.16 48.55 176.48 C 62.30 184.23 75.84 192.38 89.68 199.96 C 89.92 195.72 89.88 191.47 89.72 187.23 C 73.71 177.87 57.51 168.83 41.50 159.47 C 40.12 158.60 38.58 158.02 37.00 157.62 Z" />
<path fill="#ffffff" opacity="1.00" d=" M 147.19 158.17 C 150.37 156.61 153.33 154.09 156.91 153.67 C 160.83 156.96 164.68 160.39 168.25 164.07 C 166.42 165.76 164.21 166.92 161.99 167.99 C 145.72 176.54 129.72 185.58 113.35 193.92 C 113.30 188.09 113.21 182.25 113.38 176.42 C 124.72 170.47 135.89 164.20 147.19 158.17 Z" />
</g>
<g id="#d38897ff">
<path fill="#d38897" opacity="1.00" d=" M 101.33 16.31 C 105.20 14.26 108.53 11.13 112.80 9.91 C 113.76 27.08 112.77 44.32 113.42 61.50 C 127.00 68.52 140.33 75.99 153.80 83.20 C 154.93 83.66 156.42 84.85 157.52 83.65 C 161.25 80.62 164.61 77.15 168.12 73.86 C 167.44 73.22 166.73 72.61 165.98 72.05 C 152.12 64.59 138.16 57.28 124.41 49.61 C 124.34 45.44 124.32 41.28 124.38 37.11 C 140.42 45.54 156.28 54.31 172.28 62.81 C 177.11 65.77 182.46 67.83 187.09 71.14 C 184.75 74.42 181.56 76.92 178.63 79.64 C 172.06 85.39 165.70 91.38 159.15 97.15 C 158.03 98.30 156.49 97.13 155.33 96.71 C 139.16 88.25 123.34 79.12 106.98 71.04 C 97.13 75.79 88.02 81.93 78.38 87.08 C 78.46 86.47 78.62 85.24 78.70 84.63 C 76.44 84.43 74.22 85.03 71.97 84.97 C 69.93 84.28 69.17 82.05 68.06 80.42 C 77.86 74.30 88.11 68.92 98.07 63.08 C 99.22 62.27 100.87 61.54 100.91 59.91 C 101.46 54.92 101.21 49.87 100.86 44.88 C 97.90 45.56 95.36 47.25 92.78 48.77 C 75.35 58.64 57.95 68.59 40.57 78.55 C 39.45 79.13 38.27 79.58 37.09 80.04 C 36.71 76.13 36.34 72.11 37.14 68.23 C 37.95 66.98 39.39 66.37 40.60 65.58 C 59.96 54.63 79.27 43.59 98.61 32.61 C 99.62 31.95 100.91 31.27 100.97 29.89 C 101.50 25.39 100.97 20.83 101.33 16.31 Z" />
</g>
<g id="#a671a1ff">
<path fill="#a671a1" opacity="1.00" d=" M 54.42 88.37 C 58.64 85.22 63.51 83.04 68.06 80.42 C 69.17 82.05 69.93 84.28 71.97 84.97 C 74.22 85.03 76.44 84.43 78.70 84.63 C 78.62 85.24 78.46 86.47 78.38 87.08 C 74.15 89.61 69.61 91.67 65.65 94.63 C 64.52 100.86 64.24 107.48 65.03 113.75 C 79.92 122.71 95.21 131.03 110.21 139.82 C 111.75 140.70 113.32 142.00 113.20 143.98 C 113.45 150.62 113.09 157.26 113.36 163.90 C 127.01 156.29 140.84 149.01 154.57 141.53 C 155.96 140.90 157.73 139.47 159.16 140.83 C 164.60 145.00 169.24 150.12 174.52 154.49 C 178.97 157.98 182.99 161.99 186.92 166.03 C 186.59 167.72 184.43 168.22 183.19 169.18 C 159.87 181.49 136.87 194.42 113.44 206.53 C 112.98 212.27 113.93 218.11 112.98 223.79 C 109.47 226.80 105.46 229.36 101.17 231.12 C 100.04 212.89 102.05 194.58 100.69 176.38 C 79.45 164.90 58.09 153.65 37.05 141.83 C 36.62 137.86 36.65 133.86 37.06 129.90 C 41.13 131.17 44.73 133.49 48.44 135.52 C 62.54 143.09 76.66 150.60 90.73 158.22 C 94.06 159.95 97.18 162.18 100.87 163.12 C 101.21 157.89 101.70 152.53 100.69 147.35 C 97.86 145.03 94.41 143.62 91.31 141.71 C 78.84 134.39 66.23 127.30 53.79 119.91 C 53.28 109.40 53.83 98.86 54.42 88.37 M 147.19 158.17 C 135.89 164.20 124.72 170.47 113.38 176.42 C 113.21 182.25 113.30 188.09 113.35 193.92 C 129.72 185.58 145.72 176.54 161.99 167.99 C 164.21 166.92 166.42 165.76 168.25 164.07 C 164.68 160.39 160.83 156.96 156.91 153.67 C 153.33 154.09 150.37 156.61 147.19 158.17 Z" />
<path fill="#a671a1" opacity="1.00" d=" M 37.00 157.62 C 38.58 158.02 40.12 158.60 41.50 159.47 C 57.51 168.83 73.71 177.87 89.72 187.23 C 89.88 191.47 89.92 195.72 89.68 199.96 C 75.84 192.38 62.30 184.23 48.55 176.48 C 44.81 174.16 40.71 172.40 37.23 169.69 C 36.18 165.77 36.82 161.62 37.00 157.62 Z" />
</g>
</svg>

<?xml version="1.0" encoding="utf-8"?>
<!-- Generator: Adobe Illustrator 26.0.3, SVG Export Plug-In . SVG Version: 6.00 Build 0)  -->
<svg version="1.1" id="Layer_1" xmlns="http://www.w3.org/2000/svg" xmlns:xlink="http://www.w3.org/1999/xlink" x="0px" y="0px"
	 viewBox="0 0 212 250" style="enable-background:new 0 0 212 250;" xml:space="preserve">
<style type="text/css">
	.st0{fill:#FFFFFF;}
	.st1{fill:#D38897;}
	.st2{fill:#A671A1;}
</style>
<g id="_x23_ffffffff">
	<path class="st0" d="M147.2,158.2c3.2-1.6,6.1-4.1,9.7-4.5c3.9,3.3,7.8,6.7,11.3,10.4c-1.8,1.7-4,2.8-6.3,3.9
		c-16.3,8.5-32.3,17.6-48.6,25.9c0-5.8-0.1-11.7,0-17.5C124.7,170.5,135.9,164.2,147.2,158.2z"/>
</g>
<g id="_x23_d38897ff">
	<path class="st1" d="M101.3,16.3c3.9-2,7.2-5.2,11.5-6.4c1,17.2,0,34.4,0.6,51.6c13.6,7,26.9,14.5,40.4,21.7
		c1.1,0.5,2.6,1.7,3.7,0.5c3.7-3,7.1-6.5,10.6-9.8c-0.7-0.6-1.4-1.2-2.1-1.8c-13.9-7.5-27.8-14.8-41.6-22.4c-0.1-4.2-0.1-8.3,0-12.5
		c16,8.4,31.9,17.2,47.9,25.7c4.8,3,10.2,5,14.8,8.3c-2.3,3.3-5.5,5.8-8.5,8.5c-6.6,5.8-12.9,11.7-19.5,17.5c-1.1,1.2-2.7,0-3.8-0.4
		c-16.2-8.5-32-17.6-48.3-25.7c-9.9,4.8-19,10.9-28.6,16c0.1-0.6,0.2-1.8,0.3-2.5C76.4,84.4,74.2,85,72,85c-2-0.7-2.8-2.9-3.9-4.6
		c9.8-6.1,20.1-11.5,30-17.3c1.2-0.8,2.8-1.5,2.8-3.2c0.5-5,0.3-10-0.1-15c-3,0.7-5.5,2.4-8.1,3.9C75.3,58.6,58,68.6,40.6,78.6
		c-1.1,0.6-2.3,1-3.5,1.5c-0.4-3.9-0.8-7.9,0-11.8c0.8-1.2,2.2-1.9,3.5-2.7c19.4-11,38.7-22,58-33c1-0.7,2.3-1.3,2.4-2.7
		C101.5,25.4,101,20.8,101.3,16.3z"/>
</g>
<g id="_x23_a671a1ff">
	<path class="st2" d="M54.4,88.4c4.2-3.2,9.1-5.3,13.6-8c1.1,1.6,1.9,3.9,3.9,4.6c2.2,0.1,4.5-0.5,6.7-0.3c-0.1,0.6-0.2,1.8-0.3,2.5
		c-4.2,2.5-8.8,4.6-12.7,7.5c-1.1,6.2-1.4,12.9-0.6,19.1c14.9,9,30.2,17.3,45.2,26.1c1.5,0.9,3.1,2.2,3,4.2
		c0.2,6.6-0.1,13.3,0.2,19.9c13.7-7.6,27.5-14.9,41.2-22.4c1.4-0.6,3.2-2.1,4.6-0.7c5.4,4.2,10.1,9.3,15.4,13.7
		c4.4,3.5,8.5,7.5,12.4,11.5c-0.3,1.7-2.5,2.2-3.7,3.1c-23.3,12.3-46.3,25.2-69.8,37.4c-0.5,5.7,0.5,11.6-0.5,17.3
		c-3.5,3-7.5,5.6-11.8,7.3c-1.1-18.2,0.9-36.5-0.5-54.7c-21.2-11.5-42.6-22.7-63.6-34.6c-0.4-4-0.4-8,0-11.9
		c4.1,1.3,7.7,3.6,11.4,5.6c14.1,7.6,28.2,15.1,42.3,22.7c3.3,1.7,6.4,4,10.1,4.9c0.3-5.2,0.8-10.6-0.2-15.8
		c-2.8-2.3-6.3-3.7-9.4-5.6c-12.5-7.3-25.1-14.4-37.5-21.8C53.3,109.4,53.8,98.9,54.4,88.4 M147.2,158.2
		c-11.3,6-22.5,12.3-33.8,18.2c-0.2,5.8-0.1,11.7,0,17.5c16.4-8.3,32.4-17.4,48.6-25.9c2.2-1.1,4.4-2.2,6.3-3.9
		c-3.6-3.7-7.4-7.1-11.3-10.4C153.3,154.1,150.4,156.6,147.2,158.2z"/>
	<path class="st2" d="M37,157.6c1.6,0.4,3.1,1,4.5,1.9c16,9.4,32.2,18.4,48.2,27.8c0.2,4.2,0.2,8.5,0,12.7
		c-13.8-7.6-27.4-15.7-41.1-23.5c-3.7-2.3-7.8-4.1-11.3-6.8C36.2,165.8,36.8,161.6,37,157.6z"/>
</g>
</svg>
